X:13
M:6/8
L:1/8
K:G
egd edB | edG GBd | gab age | dBG A3 :| 
| dBB gBB | dgg bgd | efg edB | AGE GED | 
dBB gBB | dgg bgd | efg edB | dBG A3 :|| 

